X: 17
T:Hull's Victory
% Nottingham Music Database
S:via PR
M:4/4
L:1/4
K:F
c|"F"f/2c/2f/2a/2 f/2c/2f/2g/2|"Bb"a/2g/2f/2e/2 "F"fA/2B/2|"C"cc/2d/2 cc/2B/2|\
"F"A/2B/2G/2A/2 Fc|
"F"f/2c/2f/2a/2 f/2c/2f/2a/2|"C"gg ga/2g/2|"Dm"f/2e/2d/2c/2 "G7"=B/2c/2d/2B/2|\
"C"cc c::
c|"F"f/2e/2f/2g/2 a/2g/2f/2e/2|"Bb"dB Be/2f/2|"Gm"g/2^f/2g/2a/2 b/2a/2g/2=f/2|\
"C"ec cd/2e/2|
"F"f/2c/2f/2a/2 f/2c/2f/2a/2|"C"g/2c/2g/2b/2 g/2c/2g/2b/2|\
"F"a/2g/2f/2a/2 "C7"g/2f/2e/2g/2|"F"fa f:|


